rospo-icon-theme-classic-common/22x22/apps/com.github.davidmhewitt.clipped.svg

<svg height="22" width="22" xmlns="http://www.w3.org/2000/svg"><g transform="translate(-1 -1)"><rect height="20" opacity=".2" rx="2" width="18" x="3" y="2.5"/><rect fill="#e0995e" height="20" rx="2" width="18" x="3" y="2"/><path d="m5 4.5h14v16h-14z" opacity=".2"/><path d="m5 4h14v16h-14z" fill="#fff"/><g fill="#e0e0d1"><path d="m8 8h8v1h-8z"/><path d="m8 10h8v1h-8z"/><path d="m8 12h8v1h-8z"/><path d="m8 14h8v1h-8z"/><path d="m8 16h8v1h-8z"/></g><path d="m8 1.5v2.5c0 .831.669 1.5 1.5 1.5h5c .831 0 1.5-.669 1.5-1.5v-2.5z" opacity=".2"/><path d="m5 2c-1.108 0-2 .892-2 2v .5c0-1.108.892-2 2-2h14c1.108 0 2 .892 2 2v-.5c0-1.108-.892-2-2-2z" fill="#fff" opacity=".2"/><path d="m8 1v2.5c0 .831.669 1.5 1.5 1.5h5c .831 0 1.5-.669 1.5-1.5v-2.5z" fill="#4f5d73"/><path d="m8 1v .5h8v-.5z" fill="#fff" opacity=".1"/></g></svg>

<svg xmlns="http://www.w3.org/2000/svg" width="22" height="22" version="1.1">
 <g transform="translate(-1,-1)">
  <rect style="opacity:0.2" width="18" height="20" x="3" y="2.5" rx="2" ry="2"/>
  <rect width="18" height="20" x="3" y="2" rx="2" ry="2" style="fill:#e0995e"/>
  <rect style="opacity:0.2" width="14" height="16" x="5" y="4.5"/>
  <rect style="fill:#ffffff" width="14" height="16" x="5" y="4"/>
  <g>
   <rect width="8" height="1" x="8" y="8" style="fill:#e0e0d1"/>
   <rect width="8" height="1" x="8" y="10" style="fill:#e0e0d1"/>
   <rect width="8" height="1" x="8" y="12" style="fill:#e0e0d1"/>
   <rect width="8" height="1" x="8" y="14" style="fill:#e0e0d1"/>
   <rect width="8" height="1" x="8" y="16" style="fill:#e0e0d1"/>
  </g>
  <path style="opacity:0.2" d="M 8,1.5 V 4 C 8,4.831 8.669,5.5 9.5,5.5 H 14.5 C 15.331,5.5 16,4.831 16,4 V 1.5 Z"/>
  <path d="M 5,2 C 3.892,2 3,2.892 3,4 V 4.5 C 3,3.392 3.892,2.5 5,2.5 H 19 C 20.108,2.5 21,3.392 21,4.5 V 4 C 21,2.892 20.108,2 19,2 Z" style="opacity:0.2;fill:#ffffff"/>
  <path d="M 8,1 V 3.5 C 8,4.331 8.669,5 9.5,5 H 14.5 C 15.331,5 16,4.331 16,3.5 V 1 Z" style="fill:#4f5d73"/>
  <path d="M 8,1 V 1.5 H 16 V 1 Z" style="opacity:0.1;fill:#ffffff"/>
 </g>
</svg>
